X: 26344
T: Merle's Tune
R: reel
M: 4/4
K: Bdorian
|:BFBc dBFE|DB,G,B, A,B,CE|FBBc defg|aefd cAec|
BFBc dBFE|DEFG AECE|DA,DF AECE|AECF DB, ~B,2:|
|:Bcdf bBgB|fBfb fBBA|Bcde aAfA|eAea eAcA|
BFBc dBFB|defg aece|dAfd cAec|AECF DB,~B,2:|

